img/icons/order_userIcon.svg

<svg width="24" height="24" viewBox="0 0 24 24" fill="none" xmlns="http://www.w3.org/2000/svg">
<path fill-rule="evenodd" clip-rule="evenodd" d="M11.66 4.00625C10.6825 4.15214 9.96485 4.50387 9.31154 5.15718C8.73902 5.7297 8.38938 6.37497 8.21694 7.17723C8.14835 7.49632 8.13888 8.30255 8.20008 8.61135C8.31285 9.18034 8.52436 9.69707 8.83428 10.1607C9.00259 10.4124 9.3907 10.8314 9.64089 11.0315L9.77968 11.1424L9.50015 11.2832C9.16756 11.4506 8.75187 11.7208 8.40752 11.9934C8.08962 12.2451 7.53095 12.8064 7.25606 13.1505C5.98697 14.7389 5.239 16.9064 5.22186 19.0456C5.2178 19.5545 5.2208 19.5823 5.29182 19.6966C5.33264 19.7623 5.42308 19.8537 5.49282 19.8999L5.6196 19.9838L12.0523 19.9919L18.485 20L18.6522 19.9126C18.7882 19.8416 18.8364 19.7933 18.91 19.6543L19.0005 19.4834L18.9805 18.9987C18.8782 16.5127 18.0841 14.4286 16.6077 12.7712C16.1019 12.2033 15.3274 11.6002 14.6985 11.2843L14.4159 11.1424L14.5547 11.0315C14.7831 10.8488 15.1641 10.4389 15.3345 10.1924C16.4079 8.63968 16.2465 6.58141 14.9442 5.21291C14.6219 4.87418 14.2316 4.58984 13.8179 4.39223C13.2365 4.11458 12.8541 4.02257 12.2073 4.00475C11.9579 3.99787 11.7116 3.99855 11.66 4.00625ZM12.7858 5.32993C13.527 5.52552 14.1758 6.06161 14.5104 6.75504C14.7179 7.18486 14.7799 7.45851 14.7799 7.94344C14.7799 8.26077 14.7652 8.40491 14.7128 8.60018C14.4478 9.58724 13.6814 10.3342 12.6867 10.575C12.4002 10.6443 11.7954 10.6443 11.509 10.575C11.0198 10.4566 10.5903 10.2207 10.2264 9.8707C9.30147 8.98109 9.13353 7.5963 9.81749 6.49897C10.0122 6.18649 10.3807 5.82509 10.6993 5.63404C10.9668 5.47363 11.3628 5.32211 11.6458 5.27186C11.9137 5.22429 12.4984 5.25406 12.7858 5.32993ZM12.7795 12.5352L13.0986 13.1551L12.9246 13.489L12.7505 13.8229L12.095 13.8313L11.4394 13.8397L11.2691 13.4946L11.0988 13.1495L11.2805 12.7825C11.3804 12.5807 11.5252 12.299 11.6023 12.1566L11.7425 11.8976L12.1015 11.9064L12.4604 11.9152L12.7795 12.5352ZM9.93623 12.6787C9.83538 12.8717 9.78562 13.0085 9.77461 13.1233C9.75913 13.2843 9.76779 13.3068 10.0817 13.9187L10.4047 14.5484L10.0836 15.8744C9.90702 16.6037 9.67801 17.5487 9.57468 17.9744L9.38682 18.7485H7.93103H6.47522L6.49705 18.4595C6.57457 17.4323 6.90054 16.2576 7.3758 15.2927C7.97128 14.0838 8.73495 13.209 9.74925 12.5742C9.90236 12.4783 10.0399 12.3999 10.0548 12.3999C10.0697 12.3999 10.0164 12.5254 9.93623 12.6787ZM14.4844 12.597C16.1685 13.65 17.3639 15.7511 17.6634 18.1846C17.6898 18.3991 17.7114 18.6137 17.7114 18.6615V18.7485H16.2593C14.9033 18.7485 14.8061 18.7448 14.7911 18.6937C14.7386 18.5158 13.8022 14.607 13.8022 14.566C13.8022 14.5385 13.9372 14.2554 14.1022 13.9368C14.4899 13.188 14.4933 13.1637 14.2731 12.7168C14.0912 12.3478 14.0884 12.3494 14.4844 12.597ZM13.0638 16.8799C13.3025 17.8646 13.5045 18.6879 13.5126 18.7094C13.5243 18.7403 13.2288 18.7485 12.0991 18.7485C10.7534 18.7485 10.6716 18.7453 10.6866 18.6937C10.7189 18.5831 11.5507 15.1356 11.5506 15.1129C11.5505 15.1 11.7934 15.0895 12.0901 15.0895H12.6298L13.0638 16.8799Z" fill="#8C8D92"/>
</svg>

<svg width="24" height="24" fill="none" xmlns="http://www.w3.org/2000/svg"><path fill-rule="evenodd" clip-rule="evenodd" d="M11.66 4.006c-.978.146-1.695.498-2.348 1.151a3.902 3.902 0 0 0-1.095 2.02c-.069.32-.078 1.126-.017 1.434.113.57.324 1.086.634 1.55.169.251.557.67.807.87l.139.111-.28.141a6.926 6.926 0 0 0-1.092.71 9.3 9.3 0 0 0-1.152 1.157c-1.269 1.589-2.017 3.756-2.034 5.896-.004.509-.001.536.07.65a.79.79 0 0 0 .2.204l.128.084 6.432.008 6.433.008.167-.087a.499.499 0 0 0 .258-.259l.09-.17-.02-.485c-.102-2.486-.896-4.57-2.372-6.228-.506-.568-1.28-1.17-1.91-1.487l-.282-.142.139-.11c.228-.183.61-.593.78-.84a3.937 3.937 0 0 0-.39-4.98 3.887 3.887 0 0 0-1.127-.82c-.582-.277-.964-.37-1.61-.387a6.121 6.121 0 0 0-.548.001Zm1.126 1.324c.741.196 1.39.732 1.724 1.425.208.43.27.704.27 1.188 0 .318-.015.462-.067.657a2.752 2.752 0 0 1-2.026 1.975c-.287.07-.892.07-1.178 0a2.76 2.76 0 0 1-1.283-.704 2.675 2.675 0 0 1-.409-3.372 2.97 2.97 0 0 1 .882-.865c.268-.16.664-.312.947-.362.268-.048.852-.018 1.14.058Zm-.006 7.205.319.62-.174.334-.175.334-.655.008-.656.009-.17-.345-.17-.345.181-.367c.1-.202.245-.484.322-.626l.14-.26.36.01.358.008.32.62Zm-2.844.144c-.1.193-.15.33-.161.444-.016.161-.007.184.307.796l.323.63-.321 1.325-.51 2.1-.187.774H6.475l.022-.289c.078-1.027.404-2.201.879-3.166.595-1.21 1.359-2.084 2.373-2.719.153-.096.29-.174.306-.174.015 0-.039.125-.119.279Zm4.548-.082c1.685 1.053 2.88 3.154 3.18 5.588.026.214.047.429.047.477v.087H16.26c-1.356 0-1.453-.004-1.468-.055a321.85 321.85 0 0 1-.989-4.128c0-.027.135-.31.3-.63.388-.748.391-.772.171-1.22-.182-.368-.185-.367.211-.119Zm-1.42 4.283c.239.985.44 1.808.449 1.83.011.03-.284.038-1.414.038-1.346 0-1.427-.003-1.412-.054.032-.11.864-3.558.864-3.581 0-.013.242-.024.54-.024h.539l.434 1.79Z" fill="#8C8D92"/></svg>
